sharp/svg/directions_bike.svg

<svg xmlns="http://www.w3.org/2000/svg" width="24" height="24"><path fill="none" d="M0 0h24v24H0V0z"/><path d="M15.5 5.5c1.1 0 2-.9 2-2s-.9-2-2-2-2 .9-2 2 .9 2 2 2zM5 12c-2.8 0-5 2.2-5 5s2.2 5 5 5 5-2.2 5-5-2.2-5-5-5zm0 8.5c-1.9 0-3.5-1.6-3.5-3.5s1.6-3.5 3.5-3.5 3.5 1.6 3.5 3.5-1.6 3.5-3.5 3.5zm5.8-10l2.4-2.4.8.8c1.3 1.3 3 2.1 5.1 2.1V9c-1.5 0-2.7-.6-3.6-1.5l-1.9-1.9c-.5-.4-1-.6-1.6-.6s-1.1.2-1.4.6L6.31 9.9 11 14v5h2v-6.2l-2.2-2.3zM19 12c-2.8 0-5 2.2-5 5s2.2 5 5 5 5-2.2 5-5-2.2-5-5-5zm0 8.5c-1.9 0-3.5-1.6-3.5-3.5s1.6-3.5 3.5-3.5 3.5 1.6 3.5 3.5-1.6 3.5-3.5 3.5z" fill="currentColor"/></svg>

<?xml version="1.0" encoding="utf-8"?>
<!-- Generator: Adobe Illustrator 19.1.0, SVG Export Plug-In . SVG Version: 6.00 Build 0)  -->
<svg version="1.1" xmlns="http://www.w3.org/2000/svg" xmlns:xlink="http://www.w3.org/1999/xlink" x="0px" y="0px" width="24px"
	 height="24px" viewBox="0 0 24 24" enable-background="new 0 0 24 24" xml:space="preserve">
<g id="Bounding_Boxes">
	<path fill="none" d="M0,0h24v24H0V0z"/>
</g>
<g id="Sharp" fill="currentColor">
	<path d="M15.5,5.5c1.1,0,2-0.9,2-2s-0.9-2-2-2s-2,0.9-2,2S14.4,5.5,15.5,5.5z M5,12c-2.8,0-5,2.2-5,5s2.2,5,5,5s5-2.2,5-5
		S7.8,12,5,12z M5,20.5c-1.9,0-3.5-1.6-3.5-3.5s1.6-3.5,3.5-3.5s3.5,1.6,3.5,3.5S6.9,20.5,5,20.5z M10.8,10.5l2.4-2.4L14,8.9
		c1.3,1.3,3,2.1,5.1,2.1V9c-1.5,0-2.7-0.6-3.6-1.5l-1.9-1.9C13.1,5.2,12.6,5,12,5s-1.1,0.2-1.4,0.6L6.31,9.9L11,14v5h2v-6.2
		L10.8,10.5z M19,12c-2.8,0-5,2.2-5,5s2.2,5,5,5s5-2.2,5-5S21.8,12,19,12z M19,20.5c-1.9,0-3.5-1.6-3.5-3.5s1.6-3.5,3.5-3.5
		s3.5,1.6,3.5,3.5S20.9,20.5,19,20.5z"/>
</g>
</svg>
